X: 23
T:Swedish Masquerade
M:4/4
L:1/4
R:March / Jig / polka
N:http://www.lesession.co.uk
Z:Steve Mansfield 1998-2001
K:G
D | G2 G>G | G2 Ac | B2 B>B | B2 ce | 
ed Bd | dc BA | G2 G2 | G3 :: 
[M:3/4] [L:1/8]  B/c/ | dB g/e/ | dBd | cAB/A/ | G/F/ G/A/ B/c/ | 
dB g/e/ | dBd | cAF | G2 :: 
[M:2/4] [L:1/8] B>c | dB g>e | dB GB | cA FA | ed B2 | 
dB g>e | dB GB | cA FA | G2 :|

